T: Dowd's Favourite
M: 4/4
L: 1/8
K: Gdor
|gd {d}dd gbag|fc {c}cc fgaf|gd {d}dd gbag|fdcA BGBd|!gd {d}dd gbag|fc {c}cc fgaf|gafg efde|cAfc AGG|]!
